X:1
T:Title
%%score { ( 1 3 ) | ( 2 4 ) }
L:1/8
M:6/8
K:C
V:1 treble nm="Grand Piano"
V:3 treble 
V:2 bass 
V:4 bass 
V:1
 z3 z2[Q:1/4=100] [EG] | [EG]2 [EG] [FA]2 [EG] | [_E^F]2 [=EG] [Ec]2 [Ec] | [Fd]2 [Ac] [GB]2 [FA] | %4
 [EG]3- [EG]2 [EG] | G2 F D2 A | [FA]2 [EG] [CE]2 [Ec] | B2 A c2 ^F | G3- G2 G | F2 G A2 B | %10
 [Ec]2 [Fd] [Ec]2 [EG] | A2 B c2 [Ad] | [^Ge]3- [Ge]2 [Ge] | e2 A d2 d | [Ed]2 [EG] [Ec]2 [Ec] | %15
 B2 c d2 [Ge] |[M:5/8] [Ec]-[Ec]- [Ec]3 |[M:1/8] G |[M:3/4] c6 | e6 | [Ec]2 [CE] [DF]2 [FA] | %21
 [EG]6 | [B,DG]2 F [DB]2 D | [DF]6 | [CFA]2 G [Ec]2 E | [EG]6 | c6 | e6 | [Ge]2 [Fd] [Ec]2 [GB] | %29
 [FA]4- [FA][FA] | [FA]2 [EG] [EG]2 [Ec] | c2 B B2 c | e2 d [Ec]2 [DB] |[M:5/8] [Ec]-[Ec]- [Ec]3 |] %34
V:2
 z3 z2 [C,C] | [C,C]2 [C,C] [C,C]2 [C,C] | [C,C]2 [C,C] [C,G,]2 [C,G,] | %3
 [F,A,]2 [F,C] [F,C]2 [F,C] | [C,C]3- [C,C]2 [C,C] | [G,E]2 [G,D] [G,B,]2 [G,F] | %6
 [C,C]2 [C,C] [C,G,]2 [C,G,] | [D,G,D]2 [D,^F,D] [D,A,D]2 [D,CD] | [G,B,D]3- [G,B,D]2 [G,B,D] | %9
 [G,B,D]2 [G,B,D] [G,CF]2 [G,DF] | [C,C]2 [C,G,] [C,G,]2 [C,C] | [F,CF]2 [F,A,F] [F,A,F]2 [F,A,] | %12
 [E,B,]3- [E,B,]2 [E,B,] | [A,CG]2 [F,C] [F,A,F]2 [F,A,F] | [C,G,]2 [C,C] [C,G,]2 [C,G,] | %15
 [G,D]2 [G,E] [G,B,F]2[K:bass] [G,,G,] |[M:5/8] [C,G,]-[C,G,]- [C,G,]3 |[M:1/8] E | %18
[M:3/4] E6[K:treble] | G6[K:bass] | [C,G,]2 [C,G,] [C,G,]2 [C,C] | [C,C]2 C, C,2 C, | %22
 G,2 D [G,,G,]2 B, | G,2 G, G,2 G, | C,2 E [C,G,]2 C | C,2 C, C,2 E | E6[K:treble] | G6[K:bass] | %28
 [C,C]2 [C,G,] [C,G,]2 [E,C] | [F,C]4- [F,C][F,C] | [C,C]2 [C,C] [C,C]2 [C,G,] | %31
 [G,E]2 [G,D] [G,D]2 [G,E] | [G,G]2 [G,F][K:bass] [G,,G,]2 [G,,G,] | %33
[M:5/8] [C,G,]-[C,G,]- [C,G,]3 |] %34
V:3
 x6 | x6 | x6 | x6 | x6 | x6 | x6 | x6 | x6 | x6 | x6 | x6 | x6 | x6 | x6 | x6 |[M:5/8] x5 | %17
[M:1/8] x |[M:3/4] z2 G, G,2 G | z2 C C2 [Fd] | x6 | z2 C C2 [CEG] | x6 | B,2 B, B,2 [B,FA] | x6 | %25
 C2 C C2 G | z2 G, G,2 G | z2 C C2 [Ge] | x6 | x6 | x6 | x6 | x6 |[M:5/8] x5 |] %34
V:4
 x6 | x6 | x6 | x6 | x6 | x6 | x6 | x6 | x6 | x6 | x6 | x6 | x6 | x6 | x6 | x5[K:bass] x | %16
[M:5/8] x5 |[M:1/8] x |[M:3/4] z2 C, C,2[K:treble] E | z2[K:bass] C, C,2 [C,G,] | x6 | x6 | x6 | %23
 x6 | x6 | x6 | z2 C, C,2[K:treble] E | z2[K:bass] C, C,2 [C,C] | x6 | x6 | x6 | x6 | %32
 x3[K:bass] x3 |[M:5/8] x5 |] %34

